X:18412
T:Waltz from Lolland, Falster
Z:abc2
S:HO
R:Waltz
O:Denmark
M:3/4
C:Hans J\"orgen Jensen
K:D
FG |\
A4 AA | {B}A2 ^G2 A2 | F2A2d2 | f4 ef |\
g2 fe dc | e2 dc BA | c2 BA GE | D4 :|*
K:A
|: E2 |\
EG GB Bd | dc ce a2 | ag gB d2 | fe eA c2 |\
cB Bd dc | cB BA AG | FE Ec cB | A4 :|*
K:D
|: A2 |\
[A2g2][A4g4] | g2f2e2 | fA df a2 | gA ce a2 | \
[A2g2][A4g4] | g2f2e | fA a2 ge | d4 :|**


